X: 547
T:The Curlew
T:Jack Maguire's
M:4/4
L:1/8
Q:180
R:Reel
Z:Andrew Pickering
N:Posted to the woodenflute mailing list, July 2002
K:D
DF~F2 DG~G2|DF~F2 GECE|DF~F2 ABde|fdAG FGEF|
DF~F2 DG~G2|DF~F2 GECE|DF~F2 ABde|fdAG FDD2||
fgaf g2ag|fgaf gfeg|fgaf g2eg|fdAG FD D2|
fgaf g2ag|fgaf gfeg|fdAG F2eg|fdAG FGEF||
<end>
<start>
